icons/evolvere-blue-folders-flat-vivid-dark-fallback/apps/64/kshutdown.svg

<?xml version="1.0" encoding="UTF-8" standalone="no"?>
<!-- Created with Inkscape (http://www.inkscape.org/) -->

<svg
   xmlns:dc="http://purl.org/dc/elements/1.1/"
   xmlns:cc="http://creativecommons.org/ns#"
   xmlns:rdf="http://www.w3.org/1999/02/22-rdf-syntax-ns#"
   xmlns:svg="http://www.w3.org/2000/svg"
   xmlns="http://www.w3.org/2000/svg"
   xmlns:sodipodi="http://sodipodi.sourceforge.net/DTD/sodipodi-0.dtd"
   xmlns:inkscape="http://www.inkscape.org/namespaces/inkscape"
   width="64"
   height="64"
   id="svg13094"
   version="1.1"
   inkscape:version="0.48.4 r9939"
   sodipodi:docname="kshutdown.svg">
  <sodipodi:namedview
     id="base"
     pagecolor="#ffffff"
     bordercolor="#666666"
     borderopacity="1.0"
     inkscape:pageopacity="0"
     inkscape:pageshadow="2"
     inkscape:zoom="11.313709"
     inkscape:cx="30.898706"
     inkscape:cy="32.1446"
     inkscape:document-units="px"
     inkscape:current-layer="svg13094"
     showgrid="true"
     inkscape:snap-bbox="true"
     inkscape:bbox-paths="true"
     inkscape:bbox-nodes="true"
     inkscape:snap-bbox-edge-midpoints="true"
     inkscape:snap-bbox-midpoints="true"
     inkscape:object-paths="true"
     inkscape:snap-intersection-paths="true"
     inkscape:object-nodes="true"
     inkscape:snap-smooth-nodes="true"
     inkscape:snap-midpoints="true"
     inkscape:snap-object-midpoints="true"
     inkscape:snap-center="true"
     showguides="true"
     inkscape:guide-bbox="true"
     inkscape:window-width="1920"
     inkscape:window-height="1025"
     inkscape:window-x="-2"
     inkscape:window-y="32"
     inkscape:window-maximized="1"
     inkscape:snap-global="true"
     fit-margin-top="0"
     fit-margin-left="0"
     fit-margin-right="0"
     fit-margin-bottom="0"
     showborder="true"
     inkscape:showpageshadow="false"
     inkscape:snap-page="true">
    <inkscape:grid
       type="xygrid"
       id="grid3075"
       empspacing="5"
       visible="true"
       enabled="true"
       snapvisiblegridlinesonly="true"
       originx="1.6362304e-08px"
       originy="18px" />
  </sodipodi:namedview>
  <defs
     id="defs13096" />
  <metadata
     id="metadata13099">
    <rdf:RDF>
      <cc:Work
         rdf:about="">
        <dc:format>image/svg+xml</dc:format>
        <dc:type
           rdf:resource="http://purl.org/dc/dcmitype/StillImage" />
        <dc:title />
      </cc:Work>
    </rdf:RDF>
  </metadata>
  <path
     inkscape:connector-curvature="0"
     style="color:#000000;fill:#d32121;fill-opacity:1;fill-rule:nonzero;stroke:none;stroke-width:2.28571415;marker:none;visibility:visible;display:inline;overflow:visible;enable-background:accumulate"
     d="m 0,4 0,30 0,28 2,2 30,0 30,0 2,-2 L 64,34 64,4 32,4 0,4 z"
     id="path4095" />
  <path
     inkscape:connector-curvature="0"
     style="color:#000000;fill:#ff695c;fill-opacity:1;fill-rule:nonzero;stroke:none;stroke-width:2.28571415000000000;marker:none;visibility:visible;display:inline;overflow:visible;enable-background:accumulate"
     d="M 2,0 0,1 0,4 32,4 64,4 64,1 62,0 32,0 2,0 z"
     id="path4090" />
  <path
     inkscape:connector-curvature="0"
     style="fill:#ff867b;fill-opacity:1;fill-rule:nonzero"
     d="M 0,3 0,6 2,4 Z"
     id="path4298"
     sodipodi:nodetypes="cccc" />
  <path
     d="M 64,6 62,4 64,3 z"
     id="path3028"
     style="fill:#e9443e;fill-opacity:1"
     inkscape:connector-curvature="0" />
  <g
     id="g3043"
     inkscape:export-filename="folder.png"
     inkscape:export-xdpi="90"
     inkscape:export-ydpi="90"
     transform="translate(-0.62500009,0.082283)" />
  <g
     id="scalable"
     transform="matrix(1.0385892,0,0,1.0385892,1214.7222,1878.8121)"
     inkscape:label="#g3701"
     style="fill:#ffffff" />
  <path
     inkscape:connector-curvature="0"
     style="color:#000000;fill:#f7dfd6;fill-opacity:1;fill-rule:nonzero;stroke:none;stroke-width:2.28571415000000000;marker:none;visibility:visible;display:inline;overflow:visible;enable-background:accumulate"
     d="M 32,13 C 20.954305,13 12,21.954305 12,33 12,44.045695 20.954305,53 32,53 43.045695,53 52,44.045695 52,33 52,21.954305 43.045695,13 32,13 z m 0,4 c 8.836556,0 16,7.163444 16,16 0,8.836556 -7.163444,16 -16,16 -8.836556,0 -16,-7.163444 -16,-16 0,-8.836556 7.163444,-16 16,-16 z m -2,8 0,16 4,0 0,-16 -4,0 z"
     id="path3981" />
</svg>

<svg xmlns="http://www.w3.org/2000/svg" viewBox="0 0 64 64"><g color="#000"><path d="m0 4v30 28l2 2h30 30l2-2v-28-30h-32-32" fill="#d32121"/><path d="m2 0l-2 1v3h32 32v-3l-2-1h-30-30" fill="#ff695c"/></g><path d="m0 3v3l2-2" fill="#ff867b"/><path d="m64 6l-2-2 2-1z" fill="#e9443e"/><path d="m32 13c-11.05 0-20 8.954-20 20 0 11.05 8.954 20 20 20 11.05 0 20-8.954 20-20 0-11.05-8.954-20-20-20m0 4c8.837 0 16 7.163 16 16 0 8.837-7.163 16-16 16-8.837 0-16-7.163-16-16 0-8.837 7.163-16 16-16m-2 8v16h4v-16h-4" fill="#f7dfd6" color="#000"/></svg>
